X:74
T:Rakish Paddy
S:The Session: https://thesession.org/tunes/86#setting86
C:Traditional
R:reel
K:Ador
M:4/4
L:1/8
Q:1/4=120
|:"Am"c3B c2AB|cBAG FGEF|"D"Add^c defe|dcAG FGAB|
|"Am"c3B c2AB|cBAG FGEF|"D"DEFG ABcA|dcAG FDDB:|
|:"C"egg2 aggf|eggf ed^cd|"D"eaa2 baag|eaag ed^cd|
|"C"egg2 aggg|"D"egfe defg|afge fde^c|1 dcAG FGAB|2 dcAG FDD2|]

